X: 19867
T: Jessie Smith
R: hornpipe
M: 4/4
K: Gmajor
(3def|gdBG FGDC|B,DGd Bd g2|(3ded cd Bd Ad|GdFd EdDd|
gdBG FGDC|B,DGd Bd g2|(3ded fd cAEF|G2 B2 G2:|
(3def|gdBG ecAF|GBdB gdBd|B,DGB CEAc|(3ABA B^c d2
(3def|gdBG ecAF|GBdB gdBd|B,DGc BAGF|G2 B2 G2:|

